svg/application_export.svg

<svg xmlns="http://www.w3.org/2000/svg" viewBox="0 0 24 24"><path d="M8 12h9.76l-2.5-2.5 1.41-1.42L21.59 13l-4.92 4.92-1.41-1.42 2.5-2.5H8zm11-9a2 2 0 0 1 2 2v4.67l-2-2V7H5v12h14v-.67l2-2V19a2 2 0 0 1-2 2H5a2 2 0 0 1-2-2V5a2 2 0 0 1 2-2z"/></svg>

<?xml version="1.0" encoding="UTF-8"?><!DOCTYPE svg PUBLIC "-//W3C//DTD SVG 1.1//EN" "http://www.w3.org/Graphics/SVG/1.1/DTD/svg11.dtd"><svg xmlns="http://www.w3.org/2000/svg" xmlns:xlink="http://www.w3.org/1999/xlink" version="1.1" id="mdi-application-export" width="24" height="24" viewBox="0 0 24 24"><path d="M8,12H17.76L15.26,9.5L16.67,8.08L21.59,13L16.67,17.92L15.26,16.5L17.76,14H8V12M19,3C20.11,3 21,3.9 21,5V9.67L19,7.67V7H5V19H19V18.33L21,16.33V19A2,2 0 0,1 19,21H5C3.89,21 3,20.1 3,19V5A2,2 0 0,1 5,3H19Z" /></svg>
